!!!OTL: ES BLIES EIN JAEGER
!!!ARE: Europa, Mitteleuropa, Deutschland
!!!SCT: F0661
!!!YEM: Copyright 1995, estate of Helmut Schaffrath.
**kern
*ICvox
*Ivox
*M2/4
*k[f#c#g#]
*A:
{8e
=1
8e
8a
16a
16a
8cc#
=2
16b
16a
16g#
16f#
4e}
=3
{4dd
16cc#
16a
16ee
16cc#
=4
4b
8r}
{16a
16cc#
=5
16ee
16ee
16ee
16ee
16ee
16cc#
8a
=6
8dd
8dd
4dd}
=7
{8cc#
8cc#
4ee
=8
16b
16a
16g#
16f#
8e}
{8e
=9
16a
16a
16cc#
16cc#
16ee
16cc#
8a
=10
16cc#
16b
8b
8a}
==
!!!AGN: Staende -, Jaeger - Lied, Liebe, Tod
!!!ONB: ESAC (Essen Associative Code) Database: FINK
!!!AMT: simple duple
!!!AIN: vox
!!!EED: Helmut Schaffrath
!!!EEV: 1.0
*-
